X:400
T: Suwugeng
N: C1435
O: China, Qinghai, Dongbu)
S: I, 247]
R: Xiaodiao. Nannuqing]
M: 2/4
L: 1/16
K: G
A2A2A2d2 | c6B2 | A2A2A2d2 | c8
d2c4d2 | e2a2g2e2 | d2c2d2e2 | d2c2A4
A2E2A4 | A2d4B2 | A4G4 | A2GFE4
A2E2A3B | G2FED4 | E2DEG2FE | D8

